public/images/icons/icon_4.svg

<svg width="60" height="60" fill="none" xmlns="http://www.w3.org/2000/svg"><circle cx="30" cy="30" r="30" fill="url(#paint0_radial)"/><path d="M29.9777 12.385C20.5953 12.385 13 19.8527 13 29.0775c0 2.1085.4021 4.1292 1.1616 6.062.6255 1.5375 1.4744 2.9871 2.5467 4.3049L14.251 45.155c-.134.3075-.0894.659.134.8786.1787.2196.4468.3514.7149.3514h.134l9.1143-1.5814c1.8318.6589 3.753.9664 5.6741.9664C39.4047 45.77 47 38.3023 47 29.0775c0-9.2248-7.6399-16.6925-17.0223-16.6925zm-6.0316 18.801c-.9829 0-1.8318-.7906-1.8318-1.801 0-1.0103.8042-1.801 1.8318-1.801s1.8318.7907 1.8318 1.801c0 1.0104-.8489 1.801-1.8318 1.801zm6.0316 0c-.983 0-1.8318-.7906-1.8318-1.801 0-1.0103.8042-1.801 1.8318-1.801s1.8318.7907 1.8318 1.801c0 1.0104-.8489 1.801-1.8318 1.801zm6.0315 0c-.9829 0-1.8318-.7906-1.8318-1.801 0-1.0103.8042-1.801 1.8318-1.801.9829 0 1.8318.7907 1.8318 1.801 0 1.0104-.8042 1.801-1.8318 1.801z" fill="url(#paint1_linear)"/><defs><radialGradient id="paint0_radial" cx="0" cy="0" r="1" gradientUnits="userSpaceOnUse" gradientTransform="matrix(21.49994 52.99998 -76.8805 31.1873 20.5 3)"><stop stop-color="#E35BFF"/><stop offset="1" stop-color="#9E23FF"/></radialGradient><linearGradient id="paint1_linear" x1="30.6345" y1="12.385" x2="30.3433" y2="46.388" gradientUnits="userSpaceOnUse"><stop stop-color="#fff"/><stop offset="1" stop-color="#fff" stop-opacity=".6"/></linearGradient></defs></svg>

<svg width="60" height="60" viewBox="0 0 60 60" fill="none" xmlns="http://www.w3.org/2000/svg">
<circle cx="30" cy="30" r="30" fill="url(#paint0_radial)"/>
<path d="M29.9777 12.385C20.5953 12.385 13 19.8527 13 29.0775C13 31.186 13.4021 33.2067 14.1616 35.1395C14.7871 36.677 15.636 38.1266 16.7083 39.4444L14.251 45.155C14.117 45.4625 14.1616 45.814 14.385 46.0336C14.5637 46.2532 14.8318 46.385 15.0999 46.385C15.1445 46.385 15.1892 46.385 15.2339 46.385L24.3482 44.8036C26.18 45.4625 28.1012 45.77 30.0223 45.77C39.4047 45.77 47 38.3023 47 29.0775C47 19.8527 39.3601 12.385 29.9777 12.385ZM23.9461 31.186C22.9632 31.186 22.1143 30.3954 22.1143 29.385C22.1143 28.3747 22.9185 27.584 23.9461 27.584C24.9737 27.584 25.7779 28.3747 25.7779 29.385C25.7779 30.3954 24.929 31.186 23.9461 31.186ZM29.9777 31.186C28.9947 31.186 28.1459 30.3954 28.1459 29.385C28.1459 28.3747 28.9501 27.584 29.9777 27.584C31.0053 27.584 31.8095 28.3747 31.8095 29.385C31.8095 30.3954 30.9606 31.186 29.9777 31.186ZM36.0092 31.186C35.0263 31.186 34.1774 30.3954 34.1774 29.385C34.1774 28.3747 34.9816 27.584 36.0092 27.584C36.9921 27.584 37.841 28.3747 37.841 29.385C37.841 30.3954 37.0368 31.186 36.0092 31.186Z" fill="url(#paint1_linear)"/>
<defs>
<radialGradient id="paint0_radial" cx="0" cy="0" r="1" gradientUnits="userSpaceOnUse" gradientTransform="translate(20.5 3) rotate(67.9196) scale(57.1948 82.9654)">
<stop stop-color="#E35BFF"/>
<stop offset="1" stop-color="#9E23FF"/>
</radialGradient>
<linearGradient id="paint1_linear" x1="30.6345" y1="12.385" x2="30.3433" y2="46.388" gradientUnits="userSpaceOnUse">
<stop stop-color="white"/>
<stop offset="1" stop-color="white" stop-opacity="0.6"/>
</linearGradient>
</defs>
</svg>
